public/shapes/characters/373.svg

<?xml version="1.0" encoding="UTF-8"?>
<svg width="51.55px" height="117.95px" version="1.1" xmlns="http://www.w3.org/2000/svg" xmlns:cc="http://creativecommons.org/ns#" xmlns:dc="http://purl.org/dc/elements/1.1/" xmlns:rdf="http://www.w3.org/1999/02/22-rdf-syntax-ns#">
 <metadata>
  <rdf:RDF>
   <cc:Work rdf:about="">
    <dc:format>image/svg+xml</dc:format>
    <dc:type rdf:resource="http://purl.org/dc/dcmitype/StillImage"/>
    <dc:title/>
   </cc:Work>
  </rdf:RDF>
 </metadata>
 <path d="m28.724 60.779 18.039-26.227 1.5264-14.848-9.436-13.876-14.154-4.0242-11.795 3.7466-9.5748 11.656-1.2489 13.183 16.791 27.753z" fill="#fff"/>
 <g transform="translate(25.75 58.95)" fill-rule="evenodd">
  <path d="m-5.85-20.7q-0.35-0.95-1.1-1.7-1.4-1.4-3.45-1.4-1.85 0-3.2 1.25l7.75 1.85m-6.2 2.65q0-0.5 0.35-0.85t0.85-0.35l-4.15-1-0.2 1.25q0 2 1.4 3.45 1.4 1.4 3.4 1.4 2.05 0 3.45-1.4 1-1.05 1.3-2.45l-4.7-1.15q0.7 0.3 0.7 1.1 0 0.5-0.35 0.85t-0.85 0.35-0.85-0.35-0.35-0.85m22.9 5.9q-1.6 0.8-3.35 0.8-2.75 0-4.85-1.8-2.1-1.75-2.6-4.4l-2.1 0.4-0.9-0.2q-0.45 2.15-2.05 3.75-2.25 2.25-5.4 2.25l-0.7-0.05 5.65 8.75 0.05 0.1q0.65 1.45 2.05 2.35 1.35 0.85 2.95 0.85 2.7 0 4.35-2.15l6.9-10.65m-6.05-10.8q-1.2 0.85-1.75 2.2l7.9-1.6q-1.35-1.45-3.45-1.45-1.5 0-2.7 0.85m2.45 3.95q0.5 0.4 0.5 0.95 0 0.5-0.35 0.85t-0.85 0.35-0.85-0.35-0.35-0.85l0.15-0.6-2.75 0.55q0.35 1.7 1.65 2.8 1.35 1.15 3.1 1.15 2 0 3.4-1.4 1.45-1.45 1.45-3.45l-0.1-1-5 1m-7.65-35.85q-8.75 0-15 6.25t-6.25 15q0 5.05 2.35 9.65l2.65 0.65q2.3-3.3 6.25-3.3 3.15 0 5.4 2.25 1.85 1.85 2.15 4.4l0.85 0.2 2-0.4q0.4-2.75 2.55-4.6 2.1-1.85 4.95-1.85 2.05 0 3.8 1 1.65 0.95 2.7 2.65l4.45-0.9q2.4-4.5 2.4-9.75 0-8.75-6.25-15-6.2-6.25-15-6.25m-17.9 3.35q7.4-7.45 17.9-7.45 10 0 17.35 6.9 7.25 6.8 7.95 16.75 0.9 3.4 0.9 7.25 0 8-3.85 14-3.8 5.95-9.45 6.95l-5.2 8-0.4 0.45v57.65h-9.25l-0.1-54.5q-2.15-0.45-3.9-1.85-1.8-1.4-2.75-3.45l0.1 0.25-11-17q-2.8-3.4-4.25-7.5-1.5-4.15-1.5-8.55 0-10.45 7.45-17.9"/>
  <path d="m8.3-34.05q-0.35 0.3-0.75 0.3h-19.55q-0.45 0-0.75-0.3l-0.3-0.75 0.3-0.75 0.75-0.3h19.55l0.75 0.3 0.3 0.75-0.3 0.75"/>
  <path d="m-11-39.35q-0.45 0-0.75-0.3l-0.3-0.75 0.3-0.75 0.75-0.3h19.55l0.75 0.3 0.3 0.75-0.3 0.75q-0.3 0.3-0.75 0.3h-19.55"/>
  <path d="m-4.15-8.75v-0.15l0.25-0.7 0.7-0.35 0.75 0.2q0.4 0.3 0.45 0.75 0.15 1.1 1.4 1.55l1.35 0.25q0.55 0.05 0.85 0.45l0.2 0.65-0.1 0.5q-0.35 0.6-1 0.6l-0.2-0.05h-1.55l-0.8 0.3-0.35 0.35-0.15 0.65-0.35 0.15-0.6-0.1-0.25-0.75-0.05-0.1 0.2-0.65 0.8-0.65-1-1.25-0.55-1.65"/>
 </g>
</svg>

<?xml version="1.0" encoding="UTF-8" standalone="no"?>
<svg xmlns:xlink="http://www.w3.org/1999/xlink" height="117.95px" width="51.55px" xmlns="http://www.w3.org/2000/svg">
  <g transform="matrix(1.0, 0.0, 0.0, 1.0, 25.75, 58.95)">
    <path d="M-5.85 -20.7 Q-6.2 -21.65 -6.95 -22.4 -8.35 -23.8 -10.4 -23.8 -12.25 -23.8 -13.6 -22.55 L-5.85 -20.7 M-12.05 -18.05 Q-12.05 -18.55 -11.7 -18.9 -11.35 -19.25 -10.85 -19.25 L-15.0 -20.25 -15.2 -19.0 Q-15.2 -17.0 -13.8 -15.55 -12.4 -14.15 -10.4 -14.15 -8.35 -14.15 -6.95 -15.55 -5.95 -16.6 -5.65 -18.0 L-10.35 -19.15 Q-9.65 -18.85 -9.65 -18.05 -9.65 -17.55 -10.0 -17.2 -10.35 -16.85 -10.85 -16.85 -11.35 -16.85 -11.7 -17.2 -12.05 -17.55 -12.05 -18.05 M10.85 -12.15 Q9.25 -11.35 7.5 -11.35 4.75 -11.35 2.65 -13.15 0.55 -14.9 0.05 -17.55 L-2.05 -17.15 -2.95 -17.35 Q-3.4 -15.2 -5.0 -13.6 -7.25 -11.35 -10.4 -11.35 L-11.1 -11.4 -5.45 -2.65 -5.4 -2.55 Q-4.75 -1.1 -3.35 -0.2 -2.0 0.65 -0.4 0.65 2.3 0.65 3.95 -1.5 L10.85 -12.15 M4.8 -22.95 Q3.6 -22.1 3.05 -20.75 L10.95 -22.35 Q9.6 -23.8 7.5 -23.8 6.0 -23.8 4.8 -22.95 M7.25 -19.0 Q7.75 -18.6 7.75 -18.05 7.75 -17.55 7.4 -17.2 7.05 -16.85 6.55 -16.85 6.05 -16.85 5.7 -17.2 5.35 -17.55 5.35 -18.05 L5.5 -18.65 2.75 -18.1 Q3.1 -16.4 4.4 -15.3 5.75 -14.15 7.5 -14.15 9.5 -14.15 10.9 -15.55 12.35 -17.0 12.35 -19.0 L12.25 -20.0 7.25 -19.0 M-0.4 -54.85 Q-9.15 -54.85 -15.4 -48.6 -21.65 -42.35 -21.65 -33.6 -21.65 -28.55 -19.3 -23.95 L-16.65 -23.3 Q-14.35 -26.6 -10.4 -26.6 -7.25 -26.6 -5.0 -24.35 -3.15 -22.5 -2.85 -19.95 L-2.0 -19.75 0.0 -20.15 Q0.4 -22.9 2.55 -24.75 4.65 -26.6 7.5 -26.6 9.55 -26.6 11.3 -25.6 12.95 -24.65 14.0 -22.95 L18.45 -23.85 Q20.85 -28.35 20.85 -33.6 20.85 -42.35 14.6 -48.6 8.4 -54.85 -0.4 -54.85 M-18.3 -51.5 Q-10.9 -58.95 -0.4 -58.95 9.6 -58.95 16.95 -52.05 24.2 -45.25 24.9 -35.3 25.8 -31.9 25.8 -28.05 25.8 -20.05 21.95 -14.05 18.15 -8.1 12.5 -7.1 L7.3 0.9 6.9 1.35 6.9 59.0 -2.35 59.0 -2.45 4.5 Q-4.6 4.05 -6.35 2.65 -8.15 1.25 -9.1 -0.8 L-9.0 -0.55 -20.0 -17.55 Q-22.8 -20.95 -24.25 -25.05 -25.75 -29.2 -25.75 -33.6 -25.75 -44.05 -18.3 -51.5" fill="#000000" fill-rule="evenodd" stroke="none"/>
    <path d="M8.3 -34.05 Q7.95 -33.75 7.55 -33.75 L-12.0 -33.75 Q-12.45 -33.75 -12.75 -34.05 L-13.05 -34.8 -12.75 -35.55 -12.0 -35.85 7.55 -35.85 8.3 -35.55 8.6 -34.8 8.3 -34.05" fill="#000000" fill-rule="evenodd" stroke="none"/>
    <path d="M-11.0 -39.35 Q-11.45 -39.35 -11.75 -39.65 L-12.05 -40.4 -11.75 -41.15 -11.0 -41.45 8.55 -41.45 9.3 -41.15 9.6 -40.4 9.3 -39.65 Q9.0 -39.35 8.55 -39.35 L-11.0 -39.35" fill="#000000" fill-rule="evenodd" stroke="none"/>
    <path d="M7.5 -23.8 Q9.6 -23.8 10.95 -22.35 L3.05 -20.75 Q3.6 -22.1 4.8 -22.95 6.0 -23.8 7.5 -23.8" fill="#ffffff" fill-rule="evenodd" stroke="none"/>
    <path d="M7.75 -18.05 Q7.75 -18.6 7.25 -19.0 L12.25 -20.0 12.35 -19.0 Q12.35 -17.0 10.9 -15.55 9.5 -14.15 7.5 -14.15 5.75 -14.15 4.4 -15.3 3.1 -16.4 2.75 -18.1 L5.5 -18.65 5.35 -18.05 Q5.35 -17.55 5.7 -17.2 6.05 -16.85 6.55 -16.85 7.05 -16.85 7.4 -17.2 7.75 -17.55 7.75 -18.05" fill="#ffffff" fill-rule="evenodd" stroke="none"/>
    <path d="M-9.65 -18.05 Q-9.65 -18.85 -10.35 -19.15 L-5.65 -18.0 Q-5.95 -16.6 -6.95 -15.55 -8.35 -14.15 -10.4 -14.15 -12.4 -14.15 -13.8 -15.55 -15.2 -17.0 -15.2 -19.0 L-15.0 -20.25 -10.85 -19.25 Q-11.35 -19.25 -11.7 -18.9 -12.05 -18.55 -12.05 -18.05 -12.05 -17.55 -11.7 -17.2 -11.35 -16.85 -10.85 -16.85 -10.35 -16.85 -10.0 -17.2 -9.65 -17.55 -9.65 -18.05" fill="#ffffff" fill-rule="evenodd" stroke="none"/>
    <path d="M-6.95 -22.4 Q-6.2 -21.65 -5.85 -20.7 L-13.6 -22.55 Q-12.25 -23.8 -10.4 -23.8 -8.35 -23.8 -6.95 -22.4" fill="#ffffff" fill-rule="evenodd" stroke="none"/>
    <path d="M-4.15 -8.75 L-4.15 -8.9 -3.9 -9.6 -3.2 -9.95 -2.45 -9.75 Q-2.05 -9.45 -2.0 -9.0 -1.85 -7.9 -0.6 -7.45 L0.75 -7.2 Q1.3 -7.15 1.6 -6.75 L1.8 -6.1 1.7 -5.6 Q1.35 -5.0 0.7 -5.0 L0.5 -5.05 -1.05 -5.05 -1.85 -4.75 -2.2 -4.4 -2.35 -3.75 -2.7 -3.6 -3.3 -3.7 -3.55 -4.45 -3.6 -4.55 -3.4 -5.2 -2.6 -5.85 -3.6 -7.1 -4.15 -8.75" fill="#000000" fill-rule="evenodd" stroke="none"/>
  </g>
</svg>
